src/assets/icon/tune.svg

<svg width="21" height="20" viewBox="0 0 21 20" fill="none" xmlns="http://www.w3.org/2000/svg">
<mask id="mask0_505_15537" style="mask-type:alpha" maskUnits="userSpaceOnUse" x="0" y="0" width="21" height="20">
<rect x="0.5" width="20" height="20" fill="#D9D9D9"/>
</mask>
<g mask="url(#mask0_505_15537)">
<path d="M10.4997 17.2913C10.3225 17.2913 10.1741 17.2314 10.0545 17.1115C9.93478 16.9918 9.87492 16.8434 9.87492 16.6663V13.333C9.87492 13.1559 9.93485 13.0075 10.0547 12.8878C10.1746 12.7679 10.323 12.708 10.5001 12.708C10.6773 12.708 10.8258 12.7679 10.9453 12.8878C11.0651 13.0075 11.1249 13.1559 11.1249 13.333V14.3747H17.1666C17.3437 14.3747 17.4921 14.4346 17.6118 14.5545C17.7317 14.6743 17.7916 14.8228 17.7916 14.9999C17.7916 15.1771 17.7317 15.3255 17.6118 15.4451C17.4921 15.5648 17.3437 15.6247 17.1666 15.6247H11.1249V16.6663C11.1249 16.8434 11.065 16.9918 10.9451 17.1115C10.8253 17.2314 10.6768 17.2913 10.4997 17.2913ZM3.83325 15.6247C3.65617 15.6247 3.50777 15.5647 3.38804 15.4449C3.26818 15.325 3.20825 15.1765 3.20825 14.9995C3.20825 14.8222 3.26818 14.6738 3.38804 14.5543C3.50777 14.4345 3.65617 14.3747 3.83325 14.3747H7.16659C7.34367 14.3747 7.49207 14.4346 7.61179 14.5545C7.73165 14.6743 7.79158 14.8228 7.79158 14.9999C7.79158 15.1771 7.73165 15.3255 7.61179 15.4451C7.49207 15.5648 7.34367 15.6247 7.16659 15.6247H3.83325ZM7.16638 12.2913C6.98915 12.2913 6.84075 12.2314 6.72117 12.1115C6.60145 11.9918 6.54159 11.8434 6.54159 11.6663V10.6247H3.83325C3.65617 10.6247 3.50777 10.5647 3.38804 10.4449C3.26818 10.325 3.20825 10.1765 3.20825 9.99947C3.20825 9.82224 3.26818 9.67384 3.38804 9.55426C3.50777 9.43454 3.65617 9.37467 3.83325 9.37467H6.54159V8.33301C6.54159 8.15592 6.60152 8.00752 6.72138 7.8878C6.84124 7.76794 6.98971 7.70801 7.16679 7.70801C7.34402 7.70801 7.49242 7.76794 7.612 7.8878C7.73172 8.00752 7.79158 8.15592 7.79158 8.33301V11.6663C7.79158 11.8434 7.73165 11.9918 7.61179 12.1115C7.49193 12.2314 7.34346 12.2913 7.16638 12.2913ZM10.4999 10.6247C10.3228 10.6247 10.1744 10.5647 10.0547 10.4449C9.93485 10.325 9.87492 10.1765 9.87492 9.99947C9.87492 9.82224 9.93485 9.67384 10.0547 9.55426C10.1744 9.43454 10.3228 9.37467 10.4999 9.37467H17.1666C17.3437 9.37467 17.4921 9.43461 17.6118 9.55447C17.7317 9.67433 17.7916 9.8228 17.7916 9.99988C17.7916 10.1771 17.7317 10.3255 17.6118 10.4451C17.4921 10.5648 17.3437 10.6247 17.1666 10.6247H10.4999ZM13.833 7.29134C13.6558 7.29134 13.5074 7.23141 13.3878 7.11155C13.2681 6.99183 13.2083 6.84342 13.2083 6.66634V3.33301C13.2083 3.15592 13.2682 3.00752 13.388 2.8878C13.5079 2.76794 13.6564 2.70801 13.8335 2.70801C14.0107 2.70801 14.1591 2.76794 14.2787 2.8878C14.3984 3.00752 14.4583 3.15592 14.4583 3.33301V4.37467H17.1666C17.3437 4.37467 17.4921 4.43461 17.6118 4.55447C17.7317 4.67433 17.7916 4.8228 17.7916 4.99988C17.7916 5.17711 17.7317 5.32551 17.6118 5.44509C17.4921 5.56481 17.3437 5.62467 17.1666 5.62467H14.4583V6.66634C14.4583 6.84342 14.3983 6.99183 14.2785 7.11155C14.1586 7.23141 14.0101 7.29134 13.833 7.29134ZM3.83325 5.62467C3.65617 5.62467 3.50777 5.56474 3.38804 5.44488C3.26818 5.32502 3.20825 5.17655 3.20825 4.99947C3.20825 4.82224 3.26818 4.67384 3.38804 4.55426C3.50777 4.43454 3.65617 4.37467 3.83325 4.37467H10.4999C10.677 4.37467 10.8254 4.43461 10.9451 4.55447C11.065 4.67433 11.1249 4.8228 11.1249 4.99988C11.1249 5.17711 11.065 5.32551 10.9451 5.44509C10.8254 5.56481 10.677 5.62467 10.4999 5.62467H3.83325Z" fill="black"/>
</g>
</svg>

<svg xmlns="http://www.w3.org/2000/svg" width="21" height="20" fill="none" xmlns:v="https://vecta.io/nano"><mask id="A" maskUnits="userSpaceOnUse" x="0" y="0" width="21" height="20" mask-type="alpha"><path fill="#d9d9d9" d="M.5 0h20v20H.5z"/></mask><g mask="url(#A)"><path d="M10.5 17.291c-.177 0-.326-.06-.445-.18s-.18-.268-.18-.445v-3.333c0-.177.06-.325.18-.445s.268-.18.445-.18.326.06.445.18.18.268.18.445v1.042h6.042c.177 0 .326.06.445.18s.18.268.18.445-.06.326-.18.445-.268.18-.445.18h-6.042v1.042c0 .177-.06.326-.18.445s-.268.18-.445.18zm-6.666-1.667c-.177 0-.325-.06-.445-.18s-.18-.268-.18-.445.06-.326.18-.445.268-.18.445-.18h3.333c.177 0 .325.06.445.18s.18.268.18.445-.06.326-.18.445-.268.18-.445.18H3.833zm3.333-3.333c-.177 0-.326-.06-.445-.18s-.18-.268-.18-.445v-1.042H3.833c-.177 0-.325-.06-.445-.18s-.18-.268-.18-.445.06-.326.18-.445.268-.18.445-.18h2.708V8.333c0-.177.06-.325.18-.445s.268-.18.445-.18.326.06.445.18.18.268.18.445v3.333c0 .177-.06.325-.18.445s-.268.18-.445.18zm3.334-1.667c-.177 0-.325-.06-.445-.18s-.18-.268-.18-.445.06-.326.18-.445.268-.18.445-.18h6.667c.177 0 .326.06.445.18s.18.268.18.445-.06.326-.18.445-.268.18-.445.18H10.5zm3.333-3.333c-.177 0-.326-.06-.445-.18s-.18-.268-.18-.445V3.333c0-.177.06-.325.18-.445s.268-.18.446-.18.326.06.445.18.18.268.18.445v1.042h2.708c.177 0 .326.06.445.18s.18.268.18.445-.06.326-.18.445-.268.18-.445.18h-2.708v1.042c0 .177-.06.325-.18.445s-.268.18-.445.18zm-10-1.667c-.177 0-.325-.06-.445-.18s-.18-.268-.18-.445.06-.326.18-.445.268-.18.445-.18H10.5c.177 0 .325.06.445.18s.18.268.18.445-.06.326-.18.445-.268.18-.445.18H3.833z" fill="#000"/></g></svg>
